X: 21
T: Fair Jenny's Jig $1(J-18)
I: Fair Jenny's Jig	J-18	D	jig
%%musicspace 0.2cm
C: Peter Barnes \2511977
M: 6/8
R: jig
K: D
A| "D"f3 fgf| "A"ecA ecA| "G"Bcd "A"ecA| "G"Bcd "A"e2A|
   "D"f3 fed| "A"ecA ecA| "G"Bcd "A"e2A| ABc "D"d2 :|
|:A| "G"B3 B=cB| GBB B=cB| "D"ADD dDD| ^cDD "D7"=cDD|
   "G"B3 B=cB| GBB B=cB| "A"AEA "A7"AB^c| "D"dAF D2 :|
%%scale .5
%%text 08/29/98 

#include "RightHeader.h"
% ---------- set 9 ----------
% Fisher's (D) / Auld Gray Cat (Em) / Easy Club (A)
%%text Set 9
%%vskip -1cm
%%scale .75
